X:15
T:Liam \'O Raghallaigh
R:slow air
D:Mary Bergin
Z:id:hn-slowair-15
M:3/4
L:1/8
Q:1/4=110
K:Bm
{A}B4{cB} A2 | {E}F4{AF} E2 | FB3{cB} AB | d4{ed} cd | e6 |
d4 e2 | {e}f4 {e}f2 | {gf}e4{fe} d2 |1 {A}B4{cB} AF | A6 :|2 {A}B4{cB} AB | {c}B4 ||
f2 | {g}a4{ba} f2 | {a}e4{fe} dc | d4{ed} cd | {a}e6 |
d4 e2 | {e}f4 {e}f2 | {gf}e4{fe} d2 | {A}B4{cB} AF | A6 |
{A}B4{cB} A2 | {E}F4{AF} E2 | FB3{cB} AB | d4{ed} cd | e6 |
d4 e2 | {e}f4 {e}f2 | {gf}e4{fe} d2 | {A}B4{cB} AB | {c}B4 ||

